P3
# OS64 first graphical release sample image
16 12
255
24 35 49  24 35 49  24 35 49  24 35 49  49 91 135  49 91 135  49 91 135  49 91 135  49 91 135  49 91 135  49 91 135  49 91 135  24 35 49  24 35 49  24 35 49  24 35 49
24 35 49  49 91 135  49 91 135  49 91 135  110 231 162  110 231 162  110 231 162  110 231 162  110 231 162  110 231 162  110 231 162  110 231 162  49 91 135  49 91 135  49 91 135  24 35 49
24 35 49  49 91 135  232 237 244  232 237 244  232 237 244  49 91 135  49 91 135  49 91 135  49 91 135  49 91 135  232 237 244  232 237 244  232 237 244  49 91 135  49 91 135  24 35 49
24 35 49  49 91 135  232 237 244  49 91 135  49 91 135  49 91 135  49 91 135  49 91 135  49 91 135  49 91 135  49 91 135  49 91 135  232 237 244  49 91 135  49 91 135  24 35 49
24 35 49  49 91 135  232 237 244  49 91 135  24 35 49  24 35 49  24 35 49  24 35 49  24 35 49  24 35 49  49 91 135  49 91 135  232 237 244  49 91 135  49 91 135  24 35 49
24 35 49  49 91 135  232 237 244  49 91 135  24 35 49  110 231 162  110 231 162  110 231 162  110 231 162  24 35 49  49 91 135  49 91 135  232 237 244  49 91 135  49 91 135  24 35 49
24 35 49  49 91 135  232 237 244  49 91 135  24 35 49  110 231 162  232 237 244  232 237 244  110 231 162  24 35 49  49 91 135  49 91 135  232 237 244  49 91 135  49 91 135  24 35 49
24 35 49  49 91 135  232 237 244  49 91 135  24 35 49  110 231 162  232 237 244  232 237 244  110 231 162  24 35 49  49 91 135  49 91 135  232 237 244  49 91 135  49 91 135  24 35 49
24 35 49  49 91 135  232 237 244  49 91 135  24 35 49  110 231 162  110 231 162  110 231 162  110 231 162  24 35 49  49 91 135  49 91 135  232 237 244  49 91 135  49 91 135  24 35 49
24 35 49  49 91 135  232 237 244  49 91 135  49 91 135  49 91 135  49 91 135  49 91 135  49 91 135  49 91 135  49 91 135  49 91 135  232 237 244  49 91 135  49 91 135  24 35 49
24 35 49  49 91 135  232 237 244  232 237 244  232 237 244  49 91 135  49 91 135  49 91 135  49 91 135  49 91 135  232 237 244  232 237 244  232 237 244  49 91 135  49 91 135  24 35 49
24 35 49  24 35 49  49 91 135  49 91 135  49 91 135  110 231 162  110 231 162  110 231 162  110 231 162  110 231 162  49 91 135  49 91 135  49 91 135  24 35 49  24 35 49  24 35 49
